packages/icons/svg/Outline/video-off.svg

<svg fill="none" height="24" viewBox="0 0 24 24" width="24" xmlns="http://www.w3.org/2000/svg"><path clip-rule="evenodd" d="m17 15.586-2-2-6.58598-6.58599-2-2-1.707-1.707c-.391-.391-1.023-.391-1.414 0s-.391 1.023 0 1.414l.533.533 1.76 1.76 9.34498 9.34499 1.455 1.455 2.907 2.907c.195.195.451.293.707.293s.512-.098.707-.293c.391-.391.391-1.023 0-1.414zm3-.9864-2.809-2.6 2.809-2.59899zm1.0119-7.45383c-.626-.273-1.352-.154-1.851.306l-2.161 2v-1.452c0-1.654-1.346-3-3-3h-6.17196l2 2h4.17196c.552 0 1 .449 1 1v4.17203l4.718 4.718c.192.072.395.11.601.11.234 0 .469-.047.693-.145.609-.266.988-.835.988-1.484v-6.74103c0-.649-.379-1.218-.988-1.484zm-16.0119 9.85423h9c.0313 0 .0595-.0079.088-.0159.018-.005.036-.01.055-.0131l1.522 1.522c-.477.319-1.049.507-1.665.507h-9c-1.654 0-3-1.346-3-3v-8.00002c0-.871.379-1.649.974-2.198l1.422 1.422c-.235.183-.396.456-.396.776v8.00002c0 .552.448 1 1 1z" fill="#6b7280" fill-rule="evenodd"/></svg>

<svg width="24" height="24" viewBox="0 0 24 24" fill="none" xmlns="http://www.w3.org/2000/svg">
<g id="Icon/Outline/video-off">
<path id="Mask" fill-rule="evenodd" clip-rule="evenodd" d="M17 15.5859L15 13.5859L8.414 6.9999L6.414 4.9999L4.707 3.2929C4.316 2.9019 3.684 2.9019 3.293 3.2929C2.902 3.6839 2.902 4.3159 3.293 4.7069L3.826 5.2399L5.586 6.9999L14.931 16.3449L16.386 17.7999L19.293 20.7069C19.488 20.9019 19.744 20.9999 20 20.9999C20.256 20.9999 20.512 20.9019 20.707 20.7069C21.098 20.3159 21.098 19.6839 20.707 19.2929L17 15.5859ZM20 14.5996L17.191 11.9996L20 9.4006V14.5996ZM21.012 7.1456C20.386 6.8726 19.66 6.9916 19.161 7.4516L17 9.4516V7.9996C17 6.3456 15.654 4.9996 14 4.9996H7.828L9.828 6.9996H14C14.552 6.9996 15 7.4486 15 7.9996V12.1716L19.718 16.8896C19.91 16.9616 20.113 16.9996 20.319 16.9996C20.553 16.9996 20.788 16.9526 21.012 16.8546C21.621 16.5886 22 16.0196 22 15.3706V8.6296C22 7.9806 21.621 7.4116 21.012 7.1456ZM5 17H14C14.0313 17 14.0595 16.9921 14.088 16.9842C14.106 16.9791 14.124 16.9741 14.143 16.971L15.665 18.493C15.188 18.812 14.616 19 14 19H5C3.346 19 2 17.654 2 16V8C2 7.129 2.379 6.351 2.974 5.802L4.396 7.224C4.161 7.407 4 7.68 4 8V16C4 16.552 4.448 17 5 17Z" fill="#000000"/>
</g>
</svg>
